/* XPM */
static char * trans1_xpm[] = {
"32 32 378 2",
"  	c None",
". 	c #92ADD2",
"+ 	c #CFE5FF",
"@ 	c #EEFAFF",
"# 	c #93AED3",
"$ 	c #B2CEF2",
"% 	c #A7BEDD",
"& 	c #EAF4FF",
"* 	c #FCFFFF",
"= 	c #76746B",
"- 	c #D9D8CA",
"; 	c #C7C4B8",
"> 	c #ABC1DE",
", 	c #C3DDFF",
"' 	c #84898E",
") 	c #CAC7BA",
"! 	c #B6B4A6",
"~ 	c #6F6D5F",
"{ 	c #FEFBE1",
"] 	c #FFFFF4",
"^ 	c #99BEEE",
"/ 	c #AFCCF2",
"( 	c #A3C8FB",
"_ 	c #7F91A6",
": 	c #FFFFF0",
"< 	c #FFFFFE",
"[ 	c #8A8878",
"} 	c #7A7660",
"| 	c #E9E4C0",
"1 	c #FFFFE3",
"2 	c #FFFFE6",
"3 	c #FFFFEE",
"4 	c #F3F0E1",
"5 	c #73A1DE",
"6 	c #73A7EE",
"7 	c #7DAEF0",
"8 	c #6AA1EB",
"9 	c #8395A8",
"0 	c #FEF8E1",
"a 	c #FFFFEB",
"b 	c #FFFDE0",
"c 	c #FCF7D2",
"d 	c #B2AD8F",
"e 	c #54585E",
"f 	c #F2F3E4",
"g 	c #DCDED9",
"h 	c #D6D8D6",
"i 	c #D4D9DC",
"j 	c #E8E8E3",
"k 	c #D6DCDA",
"l 	c #91B0D5",
"m 	c #84A7D2",
"n 	c #9CB0C5",
"o 	c #E5E2D3",
"p 	c #D5D9DB",
"q 	c #D8DCDB",
"r 	c #DBDDD9",
"s 	c #DDDFD8",
"t 	c #989C98",
"u 	c #726E54",
"v 	c #C8D4EE",
"w 	c #CAD9ED",
"x 	c #B8C5DE",
"y 	c #B6C4DB",
"z 	c #C8D8EC",
"A 	c #A2B1D6",
"B 	c #BBC4D6",
"C 	c #FFFFEA",
"D 	c #FFFFE8",
"E 	c #FFFBE2",
"F 	c #F8F7E8",
"G 	c #9FAED2",
"H 	c #AEBBDA",
"I 	c #BFCEE4",
"J 	c #B4BFD9",
"K 	c #BCCAE1",
"L 	c #AFBEDB",
"M 	c #B4B193",
"N 	c #FFFFCF",
"O 	c #B4C0D8",
"P 	c #CDD9E5",
"Q 	c #C8D6E5",
"R 	c #C5D4E4",
"S 	c #CAD6E2",
"T 	c #B1BDD9",
"U 	c #C9D0DB",
"V 	c #FFFCE7",
"W 	c #FFFDE6",
"X 	c #F4F2E0",
"Y 	c #B4BFDB",
"Z 	c #B9C5D9",
"` 	c #D9E5F4",
" .	c #B9C7D9",
"..	c #D5E2F1",
"+.	c #C1CDDC",
"@.	c #6C6950",
"#.	c #BAB58B",
"$.	c #FFF9BF",
"%.	c #C5CEE1",
"&.	c #CBD2D9",
"*.	c #D0DDEA",
"=.	c #CEDAE8",
"-.	c #CDD3D8",
";.	c #C0CAE2",
">.	c #CDD3DA",
",.	c #FFFBDD",
"'.	c #FEFAE1",
").	c #FFFCE0",
"!.	c #F4F3DC",
"~.	c #BCC6DF",
"{.	c #C6CDDB",
"].	c #C0CAD4",
"^.	c #D9E6F4",
"/.	c #C3CDD8",
"(.	c #C6CCD5",
"_.	c #FFF9BD",
":.	c #F2EBB2",
"<.	c #BEC6DA",
"[.	c #C1D0E5",
"}.	c #D6E5F3",
"|.	c #C5CDD4",
"1.	c #C6CED7",
"2.	c #DBEBFA",
"3.	c #B8C6DF",
"4.	c #CED3D9",
"5.	c #FFFAD8",
"6.	c #FEFADB",
"7.	c #FEF9DC",
"8.	c #FFFBDB",
"9.	c #F5F3D8",
"0.	c #BBC3DC",
"a.	c #CBDAED",
"b.	c #D0DAE6",
"c.	c #C1C9D2",
"d.	c #CED7E3",
"e.	c #D7E5F5",
"f.	c #B0BAD6",
"g.	c #F3EDBE",
"h.	c #FFFFC5",
"i.	c #767254",
"j.	c #787455",
"k.	c #F9F1B3",
"l.	c #BCC5DB",
"m.	c #ADBBD3",
"n.	c #AABED3",
"o.	c #E6F2FE",
"p.	c #DCE9F6",
"q.	c #A5BBD1",
"r.	c #ABB7D1",
"s.	c #CDD2D7",
"t.	c #FFF9D2",
"u.	c #FEF9D6",
"v.	c #FFFAD5",
"w.	c #F4F1D3",
"x.	c #B8C1DA",
"y.	c #A7B8D1",
"z.	c #C0D1E6",
"A.	c #ECF3FB",
"B.	c #C5D5E8",
"C.	c #A9BDD4",
"D.	c #ACB7D4",
"E.	c #DAD39B",
"F.	c #757151",
"G.	c #FFFFC6",
"H.	c #B1BDDA",
"I.	c #BBC7E5",
"J.	c #ADB7CB",
"K.	c #B0C8E0",
"L.	c #AEC3DA",
"M.	c #B2BACF",
"N.	c #B6C2E5",
"O.	c #C4CBD2",
"P.	c #FFFACD",
"Q.	c #FFFAD1",
"R.	c #FEF9D1",
"S.	c #F3F0CF",
"T.	c #ACB9DA",
"U.	c #B6BFD8",
"V.	c #A9B7CE",
"W.	c #BDD6F3",
"X.	c #AABAD1",
"Y.	c #B5BDD3",
"Z.	c #A9B7DC",
"`.	c #F3EEB9",
" +	c #CFC790",
".+	c #75704F",
"++	c #FFFFC2",
"@+	c #FBF1AE",
"#+	c #B1BBCC",
"$+	c #B5C0D6",
"%+	c #C1C9D6",
"&+	c #B6BDC3",
"*+	c #B9BFC8",
"=+	c #C1C9D7",
"-+	c #B2BDD4",
";+	c #C8CDC8",
">+	c #FFFCC6",
",+	c #FFFBCA",
"'+	c #FEF8CB",
")+	c #FFF9CB",
"!+	c #F4EFC9",
"~+	c #ACB8CF",
"{+	c #BBC7DA",
"]+	c #B8C2CE",
"^+	c #ABB5BC",
"/+	c #B5BDCD",
"(+	c #BDC7DA",
"_+	c #A6B1CC",
":+	c #F4EDB5",
"<+	c #FFFCB4",
"[+	c #CFC78D",
"}+	c #77724F",
"|+	c #FEF4B0",
"1+	c #FDF4AF",
"2+	c #FFF7B1",
"3+	c #D9D7B7",
"4+	c #C8CCC6",
"5+	c #CCCEC3",
"6+	c #CFD1C5",
"7+	c #D6D7CB",
"8+	c #CBCEC6",
"9+	c #CDD1CE",
"0+	c #C6CBC8",
"a+	c #F9F3C6",
"b+	c #FFF8C7",
"c+	c #FFFAC5",
"d+	c #F1E2B9",
"e+	c #E9D1B9",
"f+	c #E9D1BB",
"g+	c #EEDBB5",
"h+	c #FDF5B4",
"i+	c #FFF6B3",
"j+	c #FEF5B1",
"k+	c #D0C78B",
"l+	c #646041",
"m+	c #FFFFB2",
"n+	c #FEF4AD",
"o+	c #FDF4B0",
"p+	c #FFFAB1",
"q+	c #C3C8C5",
"r+	c #A3B2DE",
"s+	c #C6D5F0",
"t+	c #C6D4EC",
"u+	c #B3C0DB",
"v+	c #D2E1F7",
"w+	c #B0C0E0",
"x+	c #A3B1D6",
"y+	c #F5EFC0",
"z+	c #FFFAC0",
"A+	c #E2CCB8",
"B+	c #DDC2CC",
"C+	c #DFC3CF",
"D+	c #DDC0CB",
"E+	c #E0C7D2",
"F+	c #DEC3B7",
"G+	c #FCF3B1",
"H+	c #FFF6B1",
"I+	c #D2C989",
"J+	c #D1C888",
"K+	c #FCF3AC",
"L+	c #FFF8AC",
"M+	c #CDD0C4",
"N+	c #B6C1DF",
"O+	c #BFC9D8",
"P+	c #CBD8E6",
"Q+	c #C5D3E4",
"R+	c #CCD8E5",
"S+	c #B6C0D3",
"T+	c #B7C1DA",
"U+	c #F9F4BD",
"V+	c #EFDFB6",
"W+	c #D7B4C1",
"X+	c #E0D2D8",
"Y+	c #E7D7DE",
"Z+	c #DECED4",
"`+	c #EBDFE3",
" @	c #D5B6C4",
".@	c #E6CDB1",
"+@	c #FFF8AD",
"@@	c #F9EFA7",
"#@	c #ACA56D",
"$@	c #FFFCAA",
"%@	c #FFF7A7",
"&@	c #D0D2C4",
"*@	c #BFC9E4",
"=@	c #CDD4DC",
"-@	c #C6D1DD",
";@	c #D5E1EF",
">@	c #C8D1D9",
",@	c #C9D0DE",
"'@	c #BCC6DC",
")@	c #F7F1B5",
"!@	c #E7CCB7",
"~@	c #E1C1CF",
"{@	c #D1CACD",
"]@	c #E4D5DB",
"^@	c #E5D9DE",
"/@	c #D7CFD2",
"(@	c #DFC7CE",
"_@	c #FDF2A5",
":@	c #F6EB9D",
"<@	c #D1D3C3",
"[@	c #B6C3DF",
"}@	c #D0E0F3",
"|@	c #C7D0DA",
"1@	c #C6CCD4",
"2@	c #D0DDEB",
"3@	c #C6D7ED",
"4@	c #B6BED2",
"5@	c #F7F1B0",
"6@	c #E7CBB6",
"7@	c #D7BAC8",
"8@	c #F6E4EC",
"9@	c #D9CFD4",
"0@	c #D7CED2",
"a@	c #F3E2E9",
"b@	c #E2C9D2",
"c@	c #DDBABA",
"d@	c #FBF1A0",
"e@	c #595537",
"f@	c #514D32",
"g@	c #FFFFAA",
"h@	c #FFF49D",
"i@	c #B1BCD9",
"j@	c #A5B6CC",
"k@	c #CEDDEE",
"l@	c #E7F2FF",
"m@	c #B2C5DB",
"n@	c #A6B3C9",
"o@	c #B5BFD5",
"p@	c #FAF3AD",
"q@	c #EFDCAD",
"r@	c #D3B2C0",
"s@	c #C2ACB4",
"t@	c #F5E3EA",
"u@	c #FEEDF4",
"v@	c #CFB1BF",
"w@	c #DFC5AA",
"x@	c #A7A067",
"y@	c #5A5638",
"z@	c #FFFFA3",
"A@	c #CFD2C1",
"B@	c #B0BEE9",
"C@	c #A6B9D4",
"D@	c #ABC2E0",
"E@	c #ACB9D3",
"F@	c #BAC4E4",
"G@	c #AAB7D7",
"H@	c #F6EDA8",
"I@	c #FFF5A4",
"J@	c #E5CAB2",
"K@	c #D2B1C1",
"L@	c #CDB4C1",
"M@	c #D2B4C1",
"N@	c #ABA468",
"O@	c #9A9A85",
"P@	c #BABDB2",
"Q@	c #C4C9C3",
"R@	c #BCC1B8",
"S@	c #F8EEA2",
"T@	c #FFF5A2",
"U@	c #D0B8A1",
"V@	c #F3E793",
"W@	c #787347",
"X@	c #686237",
"Y@	c #928A52",
"Z@	c #FFFFA9",
"`@	c #FFFFA4",
" #	c #FFFD9F",
".#	c #FFF8A1",
"+#	c #FFFFAC",
"@#	c #C5BD74",
"##	c #6B673E",
"$#	c #CAC079",
"%#	c #D3C87E",
"&#	c #D2C87E",
"*#	c #D4CA7F",
"=#	c #6B6640",
"                                                                ",
"                                                                ",
"                                                                ",
"                                .                               ",
"                              + @ #                             ",
"                              $ +                               ",
"                                %                               ",
"                              & *                               ",
"                      = - ; >     , ' ) !                       ",
"                  ~ { ]     ^   / ( _   : < [                   ",
"              } |   1 2 3 4 5 6 7 8 9 0 a b   c d               ",
"            e f     g h i j k l m n o p q r s     t             ",
"          u v   w x y z A B C D E a F G H I J K L   M           ",
"          N   O P Q R S T U E V V W X Y Z `  ...+.    @.        ",
"        #.$.  %.&.*.=.-.;.>.,.{ '.).!.~.{.].^./.(.    _.        ",
"        :.  <.[.}.|.1.2.3.4.5.6.7.8.9.0.a.b.c.d.e.f.g.h.i.      ",
"      j.  k.l.m.n.o.p.q.r.s.t.u.u.v.w.x.y.z.A.B.C.D.    E.      ",
"      F.G.  H.I.J.K.L.M.N.O.P.Q.R.Q.S.T.U.V.W.X.Y.Z.`.   +      ",
"      .+++@+#+$+%+&+*+=+-+;+>+,+'+)+!+~+{+]+^+/+(+_+:+<+[+      ",
"      }+  |+1+2+3+4+5+6+7+8+9+0+a+b+c+d+e+f+g+h+i+|+j+  k+      ",
"      l+m+n+o+p+q+r+s+t+u+v+w+x+y+z+A+B+C+D+E+F+G+H+    I+      ",
"        J+  K+L+M+N+O+P+Q+R+S+T+U+V+W+X+Y+Z+`+ @.@+@@@m+        ",
"        #@$@  %@&@*@=@-@;@>@,@'@)@!@~@{@]@^@/@(@    _@:@        ",
"            %@  <@[@}@|@1@2@3@4@5@6@7@8@9@0@a@b@c@d@  e@        ",
"          f@g@h@  i@j@k@l@m@n@o@p@q@r@s@t@u@  v@w@  x@          ",
"            y@z@A@B@  C@D@E@F@G@H@I@J@K@L@  M@    N@            ",
"                O@    P@    Q@R@S@T@    U@    V@W@              ",
"                  X@Y@Z@`@     #.#    z@+#@###                  ",
"                          $#%#&#&#%#*#=#                        ",
"                                                                ",
"                                                                ",
"                                                                "};
