/* XPM */
static const char *trans1_xpm[] =
{
	"32 32 456 2",
	"  	c None",
	". 	c #809ABD",
	"+ 	c #92ADD2",
	"@ 	c #44566C",
	"# 	c #58708E",
	"$ 	c #CFE5FF",
	"% 	c #EEFAFF",
	"& 	c #93AED3",
	"* 	c #B2CEF2",
	"= 	c #7E99BD",
	"- 	c #8A9CB5",
	"; 	c #A7BEDD",
	"> 	c #3C444E",
	", 	c #000000",
	"' 	c #7A8390",
	") 	c #EAF4FF",
	"! 	c #FCFFFF",
	"~ 	c #AEBCCE",
	"{ 	c #242422",
	"] 	c #0F0F0D",
	"^ 	c #76746B",
	"/ 	c #D9D8CA",
	"( 	c #C7C4B8",
	"_ 	c #ABC1DE",
	": 	c #CDE1FB",
	"< 	c #D2E1F6",
	"[ 	c #C3DDFF",
	"} 	c #84898E",
	"| 	c #CAC7BA",
	"1 	c #B6B4A6",
	"2 	c #151512",
	"3 	c #6F6D5F",
	"4 	c #FEFBE1",
	"5 	c #FFFFF4",
	"6 	c #FFFFF3",
	"7 	c #ECECE3",
	"8 	c #99BEEE",
	"9 	c #AACAF3",
	"0 	c #AFCCF2",
	"a 	c #A3C8FB",
	"b 	c #7F91A6",
	"c 	c #F2EEDC",
	"d 	c #FFFFF0",
	"e 	c #FFFFFE",
	"f 	c #8A8878",
	"g 	c #383730",
	"h 	c #7A7660",
	"i 	c #E9E4C0",
	"j 	c #FFFFFA",
	"k 	c #FFFFE3",
	"l 	c #FFFFE6",
	"m 	c #FFFFEE",
	"n 	c #F3F0E1",
	"o 	c #73A1DE",
	"p 	c #73A7EE",
	"q 	c #7DAEF0",
	"r 	c #6AA1EB",
	"s 	c #8395A8",
	"t 	c #FEF8E1",
	"u 	c #FFFFEB",
	"v 	c #FFFDE0",
	"w 	c #FFFFF7",
	"x 	c #FCF7D2",
	"y 	c #B2AD8F",
	"z 	c #54585E",
	"A 	c #F2F3E4",
	"B 	c #DBDCD1",
	"C 	c #DDDED5",
	"D 	c #DCDED9",
	"E 	c #D6D8D6",
	"F 	c #D4D9DC",
	"G 	c #E8E8E3",
	"H 	c #D6DCDA",
	"I 	c #91B0D5",
	"J 	c #84A7D2",
	"K 	c #9CB0C5",
	"L 	c #E5E2D3",
	"M 	c #D5D9DB",
	"N 	c #D8DCDB",
	"O 	c #DBDDD9",
	"P 	c #DDDFD8",
	"Q 	c #DEDFD6",
	"R 	c #EEF0E2",
	"S 	c #989C98",
	"T 	c #726E54",
	"U 	c #C8D4EE",
	"V 	c #A7B6DA",
	"W 	c #CAD9ED",
	"X 	c #B8C5DE",
	"Y 	c #B6C4DB",
	"Z 	c #C8D8EC",
	"` 	c #A2B1D6",
	" .	c #BBC4D6",
	"..	c #FFFFEA",
	"+.	c #FFFFE8",
	"@.	c #FFFBE2",
	"#.	c #F8F7E8",
	"$.	c #9FAED2",
	"%.	c #AEBBDA",
	"&.	c #BFCEE4",
	"*.	c #B4BFD9",
	"=.	c #BCCAE1",
	"-.	c #AFBEDB",
	";.	c #B2C0E7",
	">.	c #B4B193",
	",.	c #030200",
	"'.	c #11100E",
	").	c #FFFFCF",
	"!.	c #BAC5DE",
	"~.	c #B4C0D8",
	"{.	c #CDD9E5",
	"].	c #C8D6E5",
	"^.	c #C5D4E4",
	"/.	c #CAD6E2",
	"(.	c #B1BDD9",
	"_.	c #C9D0DB",
	":.	c #FFFCE7",
	"<.	c #FFFDE6",
	"[.	c #F4F2E0",
	"}.	c #B4BFDB",
	"|.	c #B9C5D9",
	"1.	c #D9E5F4",
	"2.	c #B9C7D9",
	"3.	c #D5E2F1",
	"4.	c #C1CDDC",
	"5.	c #AEBADA",
	"6.	c #FFFFE1",
	"7.	c #6C6950",
	"8.	c #BAB58B",
	"9.	c #FFF9BF",
	"0.	c #C0C9DF",
	"a.	c #C5CEE1",
	"b.	c #CBD2D9",
	"c.	c #D0DDEA",
	"d.	c #CEDAE8",
	"e.	c #CDD3D8",
	"f.	c #C0CAE2",
	"g.	c #CDD3DA",
	"h.	c #FFFBDD",
	"i.	c #FEFAE1",
	"j.	c #FFFCE0",
	"k.	c #F4F3DC",
	"l.	c #BCC6DF",
	"m.	c #C6CDDB",
	"n.	c #C0CAD4",
	"o.	c #D9E6F4",
	"p.	c #C3CDD8",
	"q.	c #C6CCD5",
	"r.	c #B8C2E0",
	"s.	c #F2EDBF",
	"t.	c #FFF9BD",
	"u.	c #070705",
	"v.	c #312F22",
	"w.	c #F2EBB2",
	"x.	c #FDF4B9",
	"y.	c #BEC6DA",
	"z.	c #C1D0E5",
	"A.	c #D6E5F3",
	"B.	c #C5CDD4",
	"C.	c #C6CED7",
	"D.	c #DBEBFA",
	"E.	c #B8C6DF",
	"F.	c #CED3D9",
	"G.	c #FFFAD8",
	"H.	c #FEFADB",
	"I.	c #FEF9DC",
	"J.	c #FFFBDB",
	"K.	c #F5F3D8",
	"L.	c #BBC3DC",
	"M.	c #CBDAED",
	"N.	c #D0DAE6",
	"O.	c #C1C9D2",
	"P.	c #CED7E3",
	"Q.	c #D7E5F5",
	"R.	c #B0BAD6",
	"S.	c #F3EDBE",
	"T.	c #FFFFC5",
	"U.	c #767254",
	"V.	c #787455",
	"W.	c #F9F1B3",
	"X.	c #BCC5DB",
	"Y.	c #ADBBD3",
	"Z.	c #AABED3",
	"`.	c #E6F2FE",
	" +	c #DCE9F6",
	".+	c #A5BBD1",
	"++	c #ABB7D1",
	"@+	c #CDD2D7",
	"#+	c #FFF9D2",
	"$+	c #FEF9D6",
	"%+	c #FFFAD5",
	"&+	c #F4F1D3",
	"*+	c #B8C1DA",
	"=+	c #A7B8D1",
	"-+	c #C0D1E6",
	";+	c #ECF3FB",
	">+	c #C5D5E8",
	",+	c #A9BDD4",
	"'+	c #ACB7D4",
	")+	c #F7F0BE",
	"!+	c #FFFCBA",
	"~+	c #DAD39B",
	"{+	c #757151",
	"]+	c #FFFFC6",
	"^+	c #FAF0B0",
	"/+	c #B1BDDA",
	"(+	c #BBC7E5",
	"_+	c #ADB7CB",
	":+	c #B0C8E0",
	"<+	c #AEC3DA",
	"[+	c #B2BACF",
	"}+	c #B6C2E5",
	"|+	c #C4CBD2",
	"1+	c #FFFACD",
	"2+	c #FFFAD1",
	"3+	c #FEF9D1",
	"4+	c #F3F0CF",
	"5+	c #ACB9DA",
	"6+	c #B6BFD8",
	"7+	c #A9B7CE",
	"8+	c #BDD6F3",
	"9+	c #AABAD1",
	"0+	c #B5BDD3",
	"a+	c #A9B7DC",
	"b+	c #F3EEB9",
	"c+	c #FFFCB8",
	"d+	c #CFC790",
	"e+	c #75704F",
	"f+	c #FFFFC2",
	"g+	c #FBF1AE",
	"h+	c #B1BBCC",
	"i+	c #B5C0D6",
	"j+	c #C1C9D6",
	"k+	c #B6BDC3",
	"l+	c #B9BFC8",
	"m+	c #C1C9D7",
	"n+	c #B2BDD4",
	"o+	c #C8CDC8",
	"p+	c #FFFCC6",
	"q+	c #FFFBCA",
	"r+	c #FEF8CB",
	"s+	c #FFF9CB",
	"t+	c #F4EFC9",
	"u+	c #ACB8CF",
	"v+	c #BBC7DA",
	"w+	c #B8C2CE",
	"x+	c #ABB5BC",
	"y+	c #B5BDCD",
	"z+	c #BDC7DA",
	"A+	c #A6B1CC",
	"B+	c #F4EDB5",
	"C+	c #FFFCB4",
	"D+	c #CFC78D",
	"E+	c #77724F",
	"F+	c #FFFFBF",
	"G+	c #FEF4B0",
	"H+	c #FDF4AF",
	"I+	c #FFF7B1",
	"J+	c #D9D7B7",
	"K+	c #C8CCC6",
	"L+	c #CCCEC3",
	"M+	c #CFD1C5",
	"N+	c #D6D7CB",
	"O+	c #CBCEC6",
	"P+	c #CDD1CE",
	"Q+	c #C6CBC8",
	"R+	c #F9F3C6",
	"S+	c #FFF8C7",
	"T+	c #FFFAC5",
	"U+	c #F1E2B9",
	"V+	c #E9D1B9",
	"W+	c #E9D1BB",
	"X+	c #EEDBB5",
	"Y+	c #FDF5B4",
	"Z+	c #FFF6B3",
	"`+	c #FEF5B1",
	" @	c #FFF9B2",
	".@	c #D0C78B",
	"+@	c #646041",
	"@@	c #FFFFB2",
	"#@	c #FEF4AD",
	"$@	c #FDF4B0",
	"%@	c #FFFAB1",
	"&@	c #C3C8C5",
	"*@	c #A3B2DE",
	"=@	c #C6D5F0",
	"-@	c #C6D4EC",
	";@	c #B3C0DB",
	">@	c #D2E1F7",
	",@	c #B0C0E0",
	"'@	c #A3B1D6",
	")@	c #F5EFC0",
	"!@	c #FFFAC0",
	"~@	c #E2CCB8",
	"{@	c #DDC2CC",
	"]@	c #DFC3CF",
	"^@	c #DDC0CB",
	"/@	c #E0C7D2",
	"(@	c #DEC3B7",
	"_@	c #FCF3B1",
	":@	c #FFF6B1",
	"<@	c #FFF9AD",
	"[@	c #D2C989",
	"}@	c #D1C888",
	"|@	c #FFF9AC",
	"1@	c #FCF3AC",
	"2@	c #FFF8AC",
	"3@	c #CDD0C4",
	"4@	c #B6C1DF",
	"5@	c #BFC9D8",
	"6@	c #CBD8E6",
	"7@	c #C5D3E4",
	"8@	c #CCD8E5",
	"9@	c #B6C0D3",
	"0@	c #B7C1DA",
	"a@	c #F9F4BD",
	"b@	c #EFDFB6",
	"c@	c #D7B4C1",
	"d@	c #E0D2D8",
	"e@	c #E7D7DE",
	"f@	c #DECED4",
	"g@	c #EBDFE3",
	"h@	c #D5B6C4",
	"i@	c #E6CDB1",
	"j@	c #FFF8AD",
	"k@	c #F9EFA7",
	"l@	c #676342",
	"m@	c #ACA56D",
	"n@	c #FFFCAA",
	"o@	c #FCF2A8",
	"p@	c #FFF7A7",
	"q@	c #D0D2C4",
	"r@	c #BFC9E4",
	"s@	c #CDD4DC",
	"t@	c #C6D1DD",
	"u@	c #D5E1EF",
	"v@	c #C8D1D9",
	"w@	c #C9D0DE",
	"x@	c #BCC6DC",
	"y@	c #F7F1B5",
	"z@	c #E7CCB7",
	"A@	c #E1C1CF",
	"B@	c #D1CACD",
	"C@	c #E4D5DB",
	"D@	c #E5D9DE",
	"E@	c #D7CFD2",
	"F@	c #DFC7CE",
	"G@	c #E1BEBD",
	"H@	c #FBF3A4",
	"I@	c #FDF2A5",
	"J@	c #F6EB9D",
	"K@	c #070704",
	"L@	c #FFF9A4",
	"M@	c #FFF6A3",
	"N@	c #D1D3C3",
	"O@	c #B6C3DF",
	"P@	c #D0E0F3",
	"Q@	c #C7D0DA",
	"R@	c #C6CCD4",
	"S@	c #D0DDEB",
	"T@	c #C6D7ED",
	"U@	c #B6BED2",
	"V@	c #F7F1B0",
	"W@	c #E7CBB6",
	"X@	c #D7BAC8",
	"Y@	c #F6E4EC",
	"Z@	c #D9CFD4",
	"`@	c #D7CED2",
	" #	c #F3E2E9",
	".#	c #E2C9D2",
	"+#	c #DDBABA",
	"@#	c #FBF1A0",
	"##	c #FFFFB6",
	"$#	c #595537",
	"%#	c #514D32",
	"&#	c #FFFFAA",
	"*#	c #FFF49D",
	"=#	c #CCCEBE",
	"-#	c #B1BCD9",
	";#	c #A5B6CC",
	">#	c #CEDDEE",
	",#	c #E7F2FF",
	"'#	c #B2C5DB",
	")#	c #A6B3C9",
	"!#	c #B5BFD5",
	"~#	c #FAF3AD",
	"{#	c #EFDCAD",
	"]#	c #D3B2C0",
	"^#	c #C2ACB4",
	"/#	c #F5E3EA",
	"(#	c #FEEDF4",
	"_#	c #C7B2B8",
	":#	c #CFB1BF",
	"<#	c #DFC5AA",
	"[#	c #FFFFAB",
	"}#	c #A7A067",
	"|#	c #5A5638",
	"1#	c #FFFFA3",
	"2#	c #CFD2C1",
	"3#	c #B0BEE9",
	"4#	c #B7C1DC",
	"5#	c #A6B9D4",
	"6#	c #ABC2E0",
	"7#	c #ACB9D3",
	"8#	c #BAC4E4",
	"9#	c #AAB7D7",
	"0#	c #F6EDA8",
	"a#	c #FFF5A4",
	"b#	c #E5CAB2",
	"c#	c #D2B1C1",
	"d#	c #CDB4C1",
	"e#	c #CFB6C3",
	"f#	c #D2B4C1",
	"g#	c #E3C4BB",
	"h#	c #FFFFA8",
	"i#	c #ABA468",
	"j#	c #080600",
	"k#	c #9A9A85",
	"l#	c #D8DDD2",
	"m#	c #DDDFCF",
	"n#	c #BABDB2",
	"o#	c #B8BBB0",
	"p#	c #C6C9BF",
	"q#	c #C4C9C3",
	"r#	c #BCC1B8",
	"s#	c #F8EEA2",
	"t#	c #FFF5A2",
	"u#	c #FDF39F",
	"v#	c #ECDAA2",
	"w#	c #D0B8A1",
	"x#	c #E0C6AC",
	"y#	c #FFF2B6",
	"z#	c #F3E793",
	"A#	c #787347",
	"B#	c #686237",
	"C#	c #928A52",
	"D#	c #FFFFA9",
	"E#	c #FFFFA4",
	"F#	c #FFFC9D",
	"G#	c #FFFB9D",
	"H#	c #FFFD9F",
	"I#	c #FFF8A1",
	"J#	c #FFF7A1",
	"K#	c #FFF7A0",
	"L#	c #FFFFAC",
	"M#	c #C5BD74",
	"N#	c #6B673E",
	"O#	c #222114",
	"P#	c #1B1A10",
	"Q#	c #2F2D1C",
	"R#	c #CAC079",
	"S#	c #D3C87E",
	"T#	c #D2C87E",
	"U#	c #D4CA7F",
	"V#	c #6B6640",
	"W#	c #0D0D08",
	"                                                                ",
	"                                                                ",
	"                                                                ",
	"                              . + @                             ",
	"                            # $ % &                             ",
	"                              * $ =                             ",
	"                              - ; >                             ",
	"                        ,   ' ) ! ~ { ,                         ",
	"                    ] ^ / ( _ : < [ } | 1 2                     ",
	"                , 3 4 5 6 7 8 9 0 a b c d e f g                 ",
	"              h i j k l m n o p q r s t u v w x y ,             ",
	"            z A B C D E F G H I J K L M N O P Q R S ,           ",
	"          T U V W X Y Z `  ...+.@.u #.$.%.&.*.=.-.;.>.,.        ",
	"        '.).!.~.{.].^./.(._.@.:.:.<.[.}.|.1.2.3.4.5.6.7.        ",
	"        8.9.0.a.b.c.d.e.f.g.h.4 i.j.k.l.m.n.o.p.q.r.s.t.u.      ",
	"      v.w.x.y.z.A.B.C.D.E.F.G.H.I.J.K.L.M.N.O.P.Q.R.S.T.U.      ",
	"      V.).W.X.Y.Z.`. +.+++@+#+$+$+%+&+*+=+-+;+>+,+'+)+!+~+,     ",
	"      {+]+^+/+(+_+:+<+[+}+|+1+2+3+2+4+5+6+7+8+9+0+a+b+c+d+,     ",
	"      e+f+g+h+i+j+k+l+m+n+o+p+q+r+s+t+u+v+w+x+y+z+A+B+C+D+,     ",
	"      E+F+G+H+I+J+K+L+M+N+O+P+Q+R+S+T+U+V+W+X+Y+Z+G+`+ @.@,     ",
	"      +@@@#@$@%@&@*@=@-@;@>@,@'@)@!@~@{@]@^@/@(@_@:@#@<@[@,     ",
	"      , }@|@1@2@3@4@5@6@7@8@9@0@a@b@c@d@e@f@g@h@i@j@k@@@l@      ",
	"        m@n@o@p@q@r@s@t@u@v@w@x@y@z@A@B@C@D@E@F@G@H@I@J@,       ",
	"        K@L@p@M@N@O@P@Q@R@S@T@U@V@W@X@Y@Z@`@ #.#+#@###$#        ",
	"          %#&#*#=#-#;#>#,#'#)#!#~#{#]#^#/#(#_#:#<#[#}#,         ",
	"            |#1#2#3#4#5#6#7#8#9#0#a#b#c#d#e#f#g#h#i#,           ",
	"              j#k#l#m#n#o#p#q#r#s#t#u#v#w#x#y#z#A#,             ",
	"                , B#C#D#E#F#G#H#I#J#K#1#L#M#N#O#                ",
	"                      P#Q#R#S#T#T#S#U#V#W#,                     ",
	"                          , , , , , ,                           ",
	"                                                                ",
	"                                                                "
};
